!! "Vale of Purple Mist II", (court dance suite) No. 117b from Jonathan Condit,
!! 'Music of the Korean Renaissance; Songs and dances of the fifteenth century',
!! London: Cambridge University Press, 1984, ISBN 0 521 24399 8; pp.223-225
!! NOTE: The repeat between bars 13 and 36 have been expanded in this
!!       encoding.  Note also that this work has no vocal line.
!! pluck wind
!! str.
**kern	**kern
*M18/16	*M18/16
=1	=1
8.A-	{8.a-
4.B-	[4.b-
4.B-	4.b-_
8.B-	8.b-}]
=2	=2
8.B-	{8.b-
4.d-	8dd-
.	16b-
.	[8.dd-
4.d-	8dd-]
.	[16b-
.	4.b-}]
8.B-	.
=3	=3
8.e-	{8ee-
.	16dd-
4.D-	4.b-}
4.B-	[{4.b-
8.B-	8.b-_
=4	=4
8.B-	4.b-_
4.B-	.
.	16b-]
.	16ff'}
.	16r
4.B-	4.r
8.B-	8.r
=5	=5
8.B-	{8b-
.	16a-
4.d-	8.b-
.	[8.dd-
4.d-	16dd-]
.	[8b-
.	4.b-}]
8.B-	.
=6	=6
8.e-	{16dd-
.	16ee-
.	16dd-
4.d-	4.b-}
4.B-	[4.b-
8.B-	8.b-]
=7	=7
8.B-	{8b-
.	32ee-
.	32dd-
4.e-	[4.ee-
4.d-	8ee-]
.	16dd-
.	4.b-}
8.B-	.
=8	=8
8.B-	{8b-
.	16dd-
4.B-	8b-
.	32dd-
.	32b-
.	[8.a-
8.A-	8.a-]
8.F	8.f
8.E-	[8.b-
=9	=9
8.F	8.b-}]
4.B-	[{4.b-
4.B-	16b-]
.	16dd-
.	16b-
.	4.a-}
8.A-	.
=10	=10
8.A-	{8a-
.	16e-
8.E-	[4.a-
8.A-	.
4.F	16a-]
.	[8f
.	4.f}]
8.B-	.
=11	=11
8.B-	8.r
4.B-	4.r
4.B-	4.r
8.E-	8.r
=12	=12
8.B-	8.r
4.B-	4.r
4.B-	4.r
8.B-	8.r
=13	=13
8.F	{8f
.	[16a-
4.A-	8.a-]
.	16a-}
.	[8a-
4.A-	4.a-_
8.F	8.a-]
=14	=14
8.A-	{8f
.	[16a-
4.A-	8a-]
.	[16f
.	8.f}]
4.F	[4.f
8.F	8.f_
=15	=15
8.F	4.f]
4.A-	.
.	{8f
.	[16a-
4.B-	4.a-_
8.B-	8.a-}]
=16	=16
8.B-	{8.f
4.B-	[8.b-
.	8b-}]
.	[16b-
8.A-	16b-]
.	{16b-
.	32dd-
.	32b-
8.F	8.a-
8.E-	8.f}
=17	=17
8.d-	16r
.	{8dd-
4.B-	[4.b-
4.B-	16b-]
.	16dd-
.	16b-
.	4.A-}
8.A-	.
=18	=18
8.A-	{8a-
.	16e-
8.E-	[4.a-
8.A-	.
4.F	16a-]
.	[8f
.	4.f}]
8.B-	.
=19	=19
8.B-	8.r
4.B-	4.r
4.B-	4.r
8.E-	8.r
=20	=20
8.B-	8.r
4.B-	4.r
4.B-	4.r
8.B-	8.r
=21	=21
8.B-	{8b-
.	16ee-
4.e-	[8.dd-
.	8dd]
.	[16ee-
4.e-	4.ee-_
8.e-	8.ee-}]
=22	=22
8.d-	{8dd-
.	16ff
4.d-	8ee-
.	16dd-
.	[8.b-
4.B-	4.b-_
8.B-	8.b-}]
=23	=23
8.d-	{8dd-
.	16ee-}
4.e-	{8.ee-
.	8ee-
.	16dd-
4.d-	[4.b-
8.B-	8.b-}]
=24	=24
8.B-	[{8.b-
4.B-	8b-]
.	16dd-
.	16b-
.	16dd-
.	16b-
4.A-	8.a-
.	4.f}
8.F	.
=25	=25
8.d-	16r
.	{8dd-
4.B-	[4.b-
8.A-	4.b-_
8.F	.
8.E-	8.b-_
=26	=26
8.F	16b-}]
.	[{8b-
4.B-	8b-]
.	16dd-
.	16b-
.	16dd-
.	16b-
4.A-	8.a-
.	8f
.	16e-
8.F	8.f}
=27	=27
8A-	{16a-
.	16b-
16F	32dd-
.	32b-
8.E-	8.a-
8.D-	16f
.	16e-
.	16d-
8.E-	8.e-
8.D-	8.d-
8.BB-	8.B-}
=28	=28
8.BB-	8.r
4.B-	4.r
4.B-	4.r
8.B-	8.r
=29	=29
8.A-	{16a-
.	16b-
.	16dd-
4.d-	[8.b-
.	16b-}]
.	[8b-
4.B-	4.b-_
8.B-	8.b-]
=30	=30
8B-	{8dd-
16B-	16ee-
8.d-	8.dd-
8.B-	[8.b-
8.A-	8b-]
.	16dd-
8.F	16b-
.	8a-
8.E-	8.f}
=31	=31
8.F	{8dd-
.	[16b-
4.B-	8.b-}]
.	{16b-
.	16dd-
.	16b-
4.A-	8.a-
.	8f
.	16e-
8.F	8.f}
=32	=32
8A-	{16a-
.	16b-
16F	32dd-
.	32b-
8.E-	8.a-
8.D-	16f
.	16e-
.	16d-
8.E-	8.e-
8.D-	8.d-
8.BB-	8.B-}
=33	=33
8.BB-	8.r
4.B-	4.r
4.B-	4.r
8.d-	8.r
=34	=34
8.B-	8.r
4.A-	4.r
4.F	4.r
8.A-	8.r
=35	=35
8.B-	8.r
4.B-	4.r
4.B-	4.r
8.E-	8.r
=36	=36
8.B-	8.r
4.B-	4.r
4.B-	4.r
8.B-	8.r
=37	=37
8.F	{8f
.	[16a-
4.A-	8.a-]
.	16a-}
.	[8a-
4.A-	4.a-_
8.F	8.a-]
=38	=38
8.A-	{8f
.	[16a-
4.A-	8a-]
.	[16f
.	8.f}]
4.F	[4.f
8.F	8.f_
=39	=39
8.F	4.f]
4.A-	.
.	{8f
.	[16a-
4.B-	4.a-_
8.B-	8.a-}]
=40	=40
8.B-	{8.f
4.B-	[8.b-
.	8b-}]
.	[16b-
8.A-	16b-]
.	{16b-
.	32dd-
.	32b-
8.F	8.a-
8.E-	8.f}
=41	=41
8.d-	16r
.	{8dd-
4.B-	[4.b-
4.B-	16b-]
.	16dd-
.	16b-
.	4.A-}
8.A-	.
=42	=42
8.A-	{8a-
.	16e-
8.E-	[4.a-
8.A-	.
4.F	16a-]
.	[8f
.	4.f}]
8.B-	.
=43	=43
8.B-	8.r
4.B-	4.r
4.B-	4.r
8.E-	8.r
=44	=44
8.B-	8.r
4.B-	4.r
4.B-	4.r
8.B-	8.r
=45	=45
8.B-	{8b-
.	16ee-
4.e-	[8.dd-
.	8dd]
.	[16ee-
4.e-	4.ee-_
8.e-	8.ee-}]
=46	=46
8.d-	{8dd-
.	16ff
4.d-	8ee-
.	16dd-
.	[8.b-
4.B-	4.b-_
8.B-	8.b-}]
=47	=47
8.d-	{8dd-
.	16ee-}
4.e-	{8.ee-
.	8ee-
.	16dd-
4.d-	[4.b-
8.B-	8.b-}]
=48	=48
8.B-	[{8.b-
4.B-	8b-]
.	16dd-
.	16b-
.	16dd-
.	16b-
4.A-	8.a-
.	4.f}
8.F	.
=49	=49
8.d-	16r
.	{8dd-
4.B-	[4.b-
8.A-	4.b-_
8.F	.
8.E-	8.b-_
=50	=50
8.F	16b-}]
.	[{8b-
4.B-	8b-]
.	16dd-
.	16b-
.	16dd-
.	16b-
4.A-	8.a-
.	8f
.	16e-
8.F	8.f}
=51	=51
8A-	{16a-
.	16b-
16F	32dd-
.	32b-
8.E-	8.a-
8.D-	16f
.	16e-
.	16d-
8.E-	8.e-
8.D-	8.d-
8.BB-	8.B-}
=52	=52
8.BB-	8.r
4.B-	4.r
4.B-	4.r
8.B-	8.r
=53	=53
8.A-	{16a-
.	16b-
.	16dd-
4.d-	[8.b-
.	16b-}]
.	[8b-
4.B-	4.b-_
8.B-	8.b-]
=54	=54
8B-	{8dd-
16B-	16ee-
8.d-	8.dd-
8.B-	[8.b-
8.A-	8b-]
.	16dd-
8.F	16b-
.	8a-
8.E-	8.f}
=55	=55
8.F	{8dd-
.	[16b-
4.B-	8.b-}]
.	{16b-
.	16dd-
.	16b-
4.A-	8.a-
.	8f
.	16e-
8.F	8.f}
=56	=56
8A-	{16a-
.	16b-
16F	32dd-
.	32b-
8.E-	8.a-
8.D-	16f
.	16e-
.	16d-
8.E-	8.e-
8.D-	8.d-
8.BB-	8.B-}
=57	=57
8.BB-	8.r
4.B-	4.r
4.B-	4.r
8.d-	8.r
=58	=58
8.B-	8.r
4.A-	4.r
4.F	4.r
8.A-	8.r
=59	=59
8.B-	8.r
4.F	8r
.	{16e-
.	16e-
.	8d-
4.F	8d-}
.	[16d-
.	4.d-_
8.E-	.
=60	=60
8.E-	16d-]
.	[{8d-
4.E-	8d-]
.	[16e-
.	8.e-]
4.D-	8.d-}
.	{8.d-
8.BB-	8.B-}
=61	=61
8.A-	{16a-
.	16b-
.	16dd-
4.d-	[8.b-
.	16b-}]
.	[8b-
4.B-	4.b-_
8.B-	8.b-]
=62	=62
8B-	{8dd-
16B-	16ee-
8.d-	8.dd-
8.B-	[8.b-
8.A-	8b-]
.	16dd-
8.F	16b-
.	8a-
8.E-	8.f}
=63	=63
8.F	{8dd-
.	16b-
4.B-	8.b-}
.	{16b-
.	16dd-
.	16b-
4.A-	8.a-
.	8f
.	16e-
8.F	8.f}
=64	=64
8A-	{16a-
.	16b-
16F	32dd-
.	32b-
8.E-	8.a-
8.D-	16f
.	16e-
.	16d-
8.E-	8.e-
8.D-	8.d-
8.BB-	8.B-}
=65	=65
8.BB-	8.r
4.B-	4.r
4.B-	4.r
8.d-	8.r
=66	=66
8.B-	8.r
4.A-	4.r
4.F	4.r
8.A-	8.r
=67	=67
8.B-	8.r
4.B-	4.r
4.d-	4.r
8.B-	8.r
=68	=68
8.B-	8.r
4.B-	4.r
4.B-	4.r
8.B-	8.r
====	====
*-	*-
